X:1
T:Le Papillon
T:Pièces Faciles et Agréables pour la Flûte ou Violon et Guitare 
T:Mauro Giuliani  (1781-1829)
T:Op.74
C:Giuliani
%%score { 1 ( 2 3 ) }
L:1/8
Q:1/4=100
M:4/4
K:D
V:1 treble nm="Flûte"
V:2 treble-8 nm="Classical Guitar"
V:3 treble-8 
V:1
"^Maestoso\nSostenuto\n""_" f>e | edcd A2 g>f | fe^de A2 a>g | f a2 d'- d'c'ge | d4{ed} c z e>f | %5
 agfe dcb>a | a3 f agB>e |{/e} d3 d{/d} c3 c | af d'3 c'/b/ a/g/f/e/ | e2 d>f a2 g>e | %10
 d2{/c'} d'2 D z z2 | =f4{/f} e>de>f | d2 z2 z4 | g4{/g} =f>ef>g | e2 z2 z4 | z a{/=c'}_b>a a4 | %16
 z a{/=c'}_b>a a4 | z ag=f e_b a/g/f/e/ | (d4 c) z =c>c | =c3 a (3ag=f (3fed | d =c2 c =Bc_be | %21
 =f2 f>f fg/f/ ef | ^f4 g2 z2 | a4 ^ga_ba | =g=fed cdag | g3 e g2 =f>d | =c4 z2 c>e | g4 ag=fg | %28
 a4 =f2 z2 | _b3 a g>bd'>=c' | =c'3 _b a2 z3/2 a/ | =f'4{/f'} e'>d'e'>f' | d'4 z3/2 c'/ d'>e' | %33
 =f'2 ^g2 g2 g2 | a4 z2 f>e | edcd A2 g>f | fe^de A2 a>g | f a2 d'- d'bge | d4{ed} c z e>f | %39
 agfe dcb>a | a3 f agB>e |{/e} d3 d{/d} c3 c | af d'3 c'/b/ a/g/f/e/ | e2 d>f a2 g>e | %44
 d2 z2 ^gaba | f2 z2 ^defe | =d2 d'2 d2 d2 | d4 z4 |] %48
V:2
 z2 |"_" z [Adf][Adf][Adf] z [Adf][Adf][Adf] | z [Acg][Acg][Acg] z [Ace][Ace][Ace] | %3
 z [Adf][Adf][Adf] z [GBg][GBg][GBg] | z [Adf][Adf][Adf] [Ace]2 z2 | %5
 z [Ace][Ace][Ace] z [Acg][Acg][Acg] | z [Adf][Adf][Adf] z [GBg][GBg][GBg] | %7
 z [Adf][Adf][Adf] z [Acg][Acg][Acg] | z [Adf][Adf][Adf] z [GBe][GBe][GBe] | %9
 z [Adf][Adf][Adf] z [Acg][Acg][Acg] | z2 [Adf]2 [Adf] z z2 | z Ad=f z Acg | %12
 z [=fa][fa][fa] [g_b][fa][eg][df] | z Ace z Ad=f | z [eg][eg][eg] [=fa][eg][df][ce] | %15
 [d=f]A[df]A z [ce][df][eg] | [d=f]A[df]A z [ce][df][eg] | z [Ad=f][Adf][Adf] z [_Bde][Bde][Bde] | %18
 z Ad=f [Ace]2 z2 | [A=f]=c[Af]c [Af]c[Af]c | [_Bg]=c[Bg]c [Bg]c[Bg]c | [A=f]=c[Af]c [Af]c[Af]c | %22
 [_Be]=c[Be]c [Be]c[Be]c | z A=c=f z A^cg | z Ad=f z Gdf | z G=ce z GB=f | z G=ce z4 | %27
 z _B=ce z Bce | z A=c=f z Acf | z G=ce z Gce | z A=c=f z Acf | %31
"_" z [Ad=f][Adf][Adf] z [Acg][Acg][Acg] | z [Ad=f][Adf][Adf] [Adf]2 z2 | z ^Gd=f z Gdf | %34
 z Ace z4 | z [Adf][Adf][Adf] z [Adf][Adf][Adf] | z [Acg][Acg][Acg] z [Ace][Ace][Ace] | %37
 z [Adf][Adf][Adf] z [GBg][GBg][GBg] | z [Adf][Adf][Adf] [Ace]2 z2 | %39
 z [Ace][Ace][Ace] z [Acg][Acg][Acg] | z [Adf][Adf][Adf] z [GBg][GBg][GBg] | %41
 z [Adf][Adf][Adf] z [Acg][Acg][Acg] | z [Adf][Adf][Adf] z [GBe][GBe][GBe] | %43
 z [Adf][Adf][Adf] z [Acg][Acg][Acg] | z [Adf][Adf][Adf] z [Ace][Ace][Ace] | %45
 z [Adf][Adf][Adf] z [Acg][Acg][Acg] | [Adf]2 [Adf]2 [Adf]2 [Adf]2 | [Adf]4 z4 |] %48
V:3
 x2 | D4 D4 | A,4 A,4 | D4 G,4 | A,4 A,2 z2 | A,4 A,4 | D4 G,4 | A,4 A,4 | F,4 G,4 | A,4 A,4 | %10
 D2 D2 D z z2 | D4 A,4 | D4 z4 | A,4 D4 | A,4 z4 | D4 A,4 | D4 A,4 | D4 G,4 | A,4 A,2 z2 | %19
 =F,4 F,4 | =F,4 F,4 | =F,4 F,4 | =C4 C4 | =F4 E4 | D4 B,4 | =C4 G,4 | =C4 C2 z2 | =C4 C4 | %28
 =F4 F4 | =C4 C4 | =F4 F4 | D4 A,4 | D4 D2 z2 | _B,4 B,4 | A,4 A,2 z2 | D4 D4 | A,4 A,4 | D4 G,4 | %38
 A,4 A,2 z2 | A,4 A,4 | D4 G,4 | A,4 A,4 | F,4 G,4 | A,4 A,4 | D4 A,4 | D4 A,4 | D2 D2 A,2 F,2 | %47
 D4 z4 |] %48

